X: 1
T: Cregg Castle
R: reel
M: 4/4
L: 1/8
K: Gmaj
|:A|BedB A2 GE|D2 B,D DEGA|Beed e2 dB|GBdB BAA2|
Beed e3 f|gefd edBA|BAGE D2 Bd|dBAB G3:|
|:A|Beed e4|efga bage|d2 Bd d2 Bd|egdB BAA2|
BAGE D2 B,D|D2 B,D DEGA|Beed e2 dB|dBAB G3:|

composer: Vincent Broderick
